X: 35802
T: Salmon, The
R: reel
M: 4/4
K: Dmajor
|:FDEF DEFG|Adde fedc|BddB AFDE|FEEF E2AG|
FDEF DEFG|Adde fedc|BddB AFDG|1 F2D2 D2AG:|2 F2D2 D4||
|:dAFA d2de|fedc BcdB|A2FA dcde|feef e4|
dAFA d2de|fedc BcdB|A2FA GFEG|1 F2D2 D4:|2 F2D2 D2AG||

